src/public/img/landing/new/external-websites/foot-locker.svg

<svg width="119" height="24" viewBox="0 0 119 24" fill="none" xmlns="http://www.w3.org/2000/svg">
<g clip-path="url(#clip0_3628_19604)">
<path d="M118.579 0H0.599609V24H118.579V0Z" fill="black"/>
<path d="M84.5749 11.9098V4.46036C84.5749 4.29673 84.6077 4.264 84.7723 4.264H88.4521C88.6 4.264 88.6328 4.29673 88.6328 4.44364V11.5505C88.6488 11.5833 88.6655 11.616 88.6655 11.6487L88.7639 11.6C88.8629 11.4851 88.9445 11.3709 89.0436 11.24C89.5527 10.6196 90.0451 9.99855 90.5543 9.37818C90.6206 9.28 90.7021 9.24727 90.834 9.24727H94.8751C94.9079 9.24727 94.9407 9.26327 94.9574 9.296C94.9734 9.31273 94.9407 9.36145 94.9239 9.37745C94.6777 9.688 94.4148 9.98255 94.1686 10.2924C93.4132 11.2073 92.6572 12.1389 91.9018 13.0538C91.7212 13.2822 91.5405 13.4945 91.3431 13.7229C91.2776 13.8051 91.2776 13.8538 91.3431 13.936C91.8851 14.5731 92.427 15.2269 92.9696 15.8633C93.6427 16.664 94.2997 17.4487 94.9574 18.2487C95.2692 18.6247 95.5977 19.0007 95.9102 19.376C95.9262 19.4095 95.9429 19.4415 95.9429 19.4742C95.9102 19.4909 95.8774 19.5069 95.8439 19.5069H91.4415C91.4032 19.508 91.3652 19.4997 91.3309 19.4827C91.2966 19.4658 91.267 19.4406 91.2448 19.4095C90.571 18.6087 89.914 17.792 89.2402 16.9913C89.0924 16.8116 88.9445 16.648 88.8134 16.4676C88.7806 16.4356 88.7311 16.4189 88.6983 16.3869C88.6816 16.4356 88.6655 16.4684 88.6655 16.5178V19.36C88.6655 19.4909 88.6488 19.5069 88.4849 19.5069H84.805C84.5916 19.5069 84.5916 19.5069 84.5916 19.2945C84.5749 16.8436 84.5749 14.3767 84.5749 11.9098ZM66.5879 19.7033C66.076 19.713 65.5658 19.6414 65.0765 19.4909C64.5757 19.3437 64.0996 19.1233 63.6634 18.8371C63.1423 18.4902 62.6723 18.0724 62.267 17.5956C61.9402 17.2046 61.6694 16.7701 61.4622 16.3047C61.0849 15.4065 60.9698 14.4589 61.0514 13.5113C61.0907 13.0308 61.1958 12.5581 61.3638 12.1062C61.6428 11.3382 62.0864 10.6684 62.6618 10.08C63.1358 9.61073 63.6854 9.22427 64.2876 8.93673C64.5833 8.80582 64.9118 8.70764 65.2404 8.62618C65.8813 8.47927 66.5223 8.42982 67.1626 8.47927C67.5745 8.51431 67.9818 8.59082 68.3783 8.70764C68.7819 8.82582 69.1683 8.99623 69.5277 9.21455C70.0376 9.50836 70.4644 9.90036 70.8585 10.3251C71.2205 10.7178 71.5155 11.1418 71.7457 11.6C71.9263 11.9753 72.0742 12.3673 72.1565 12.7927C72.3204 13.5273 72.3204 14.2793 72.222 15.0305C72.1506 15.5051 72.0123 15.9671 71.8112 16.4029C71.3021 17.4975 70.4812 18.2982 69.4949 18.9513C69.0472 19.226 68.5598 19.4301 68.0498 19.5564C67.5567 19.6378 67.097 19.7033 66.5879 19.7033ZM66.7518 12.416C66.424 12.416 66.1108 12.4815 65.8318 12.6451C65.405 12.8902 65.1588 13.2822 65.0597 13.7564C64.9942 14.0996 65.0269 14.4589 65.142 14.8022C65.2899 15.2269 65.5856 15.488 66.0125 15.5862C66.3905 15.6844 66.7846 15.6844 67.1793 15.6022C67.6885 15.5047 68.033 15.2102 68.1649 14.72C68.3127 14.2138 68.3127 13.6909 68.0993 13.2007C68.0399 13.0511 67.9467 12.9171 67.8269 12.8094C67.7071 12.7017 67.564 12.623 67.4088 12.5796C67.1954 12.4982 66.9652 12.4655 66.7518 12.4167V12.416ZM24.4189 14.2298C24.4357 14.5898 24.3534 15.112 24.2055 15.6189C24.0088 16.288 23.6956 16.8771 23.2688 17.432C22.8813 17.9322 22.4221 18.3725 21.9059 18.7389C21.55 18.9838 21.17 19.1919 20.7718 19.36C19.967 19.6705 19.1293 19.7687 18.2916 19.7033C17.8025 19.6604 17.3216 19.5502 16.8625 19.376C15.7619 18.9513 14.9243 18.2327 14.201 17.3338C13.9086 16.9639 13.6759 16.5507 13.5112 16.1091C13.3633 15.7164 13.249 15.3084 13.1994 14.8836C13.1499 14.4749 13.1171 14.0502 13.1499 13.6422C13.1994 13.0698 13.3145 12.5149 13.544 11.9753C13.9053 11.0771 14.5127 10.3418 15.236 9.72073C15.6314 9.38976 16.0743 9.12007 16.5501 8.92073C17.4533 8.528 18.4067 8.42982 19.3762 8.512C19.8189 8.54788 20.255 8.64127 20.6735 8.78982C21.3398 9.02897 21.9533 9.39502 22.4799 9.86764C22.9889 10.3075 23.417 10.8328 23.7451 11.4196C23.9098 11.7302 24.0409 12.0407 24.156 12.3673C24.3526 12.8742 24.4189 13.4618 24.4189 14.2298ZM17.1255 14.0829C17.1255 14.1484 17.1415 14.2793 17.1583 14.4102C17.2406 14.9978 17.5523 15.4065 18.127 15.5535C18.6369 15.6844 19.1461 15.7004 19.6384 15.5047C20.0165 15.3571 20.2627 15.0633 20.3617 14.6873C20.4761 14.2953 20.4761 13.9033 20.3945 13.4945C20.2467 12.8909 19.8358 12.5636 19.2939 12.4822C18.8664 12.4167 18.4395 12.4167 18.0119 12.5636C17.732 12.6602 17.4942 12.8507 17.3389 13.1025C17.1583 13.3804 17.1255 13.6909 17.1255 14.0829ZM30.8747 19.7033C30.3823 19.7193 29.8731 19.6378 29.3633 19.4909C28.8504 19.3419 28.3631 19.116 27.9181 18.8211C27.194 18.3519 26.5732 17.7405 26.0935 17.024C25.8356 16.6336 25.6313 16.2104 25.486 15.7658C25.2558 15.0465 25.1903 14.3113 25.2398 13.5767C25.2726 13.0698 25.3877 12.5964 25.5516 12.1222C25.8473 11.3382 26.3076 10.6684 26.8991 10.064C27.3755 9.58982 27.9006 9.19855 28.5249 8.93673C28.9831 8.74377 29.4629 8.60654 29.954 8.528C30.3983 8.46254 30.8572 8.42982 31.3015 8.47927C31.5972 8.49527 31.8922 8.56073 32.188 8.62618C32.4181 8.67491 32.6483 8.74036 32.8785 8.82255C33.1575 8.93673 33.4532 9.06691 33.7161 9.23055C34.3236 9.57382 34.816 10.0473 35.2603 10.5869C35.6216 11.0276 35.9174 11.5018 36.114 12.0247C36.4377 12.8443 36.5618 13.729 36.476 14.6058C36.4105 15.2102 36.2786 15.7985 36.0157 16.3542C35.657 17.112 35.1419 17.7857 34.5043 18.3309C34.0344 18.7561 33.4958 19.0986 32.9113 19.344C32.2623 19.5957 31.5701 19.7178 30.8739 19.7033H30.8747ZM31.0058 15.6516C31.0713 15.6516 31.1376 15.6349 31.2199 15.6349C31.5157 15.6022 31.7954 15.5367 32.0248 15.3571C32.3038 15.1447 32.4516 14.8509 32.5172 14.5076C32.5828 14.0829 32.5828 13.6742 32.4356 13.2662C32.271 12.808 31.9257 12.5636 31.4669 12.4822C31.0225 12.4 30.5789 12.4 30.1354 12.5476C29.6925 12.6945 29.4128 13.0044 29.2977 13.4618C29.1991 13.8368 29.1991 14.2308 29.2977 14.6058C29.3633 14.8836 29.4944 15.112 29.7253 15.2916C30.1026 15.6022 30.5462 15.6349 31.0065 15.6516H31.0058Z" fill="white"/>
<path d="M100.493 19.6873C99.984 19.7033 99.4749 19.6218 98.9817 19.4909C98.4676 19.3454 97.9798 19.1193 97.5366 18.8211C96.8109 18.3418 96.1859 17.7257 95.6967 17.0073C95.4344 16.6277 95.2347 16.2086 95.1052 15.7658C94.7927 14.8015 94.76 13.8386 94.9574 12.8575C95.0885 12.2531 95.3186 11.6815 95.6471 11.1418C96.0084 10.5542 96.436 10.0313 96.9779 9.58985C97.3868 9.25233 97.8472 8.98226 98.3415 8.78985C99.1791 8.46257 100.05 8.38112 100.937 8.41385C101.403 8.43407 101.866 8.50528 102.316 8.62621C102.973 8.82257 103.565 9.13239 104.091 9.55712C104.64 10.0114 105.097 10.5661 105.437 11.1913C105.618 11.5346 105.799 11.8938 105.947 12.2531C106.095 12.6291 106.177 13.0371 106.177 13.4458C106.177 13.5768 106.144 13.6095 106.013 13.6255C105.635 13.7069 105.241 13.7891 104.863 13.8706C104.518 13.936 104.189 14.0175 103.844 14.0829C103.499 14.1644 103.154 14.2298 102.809 14.3113C102.464 14.3935 102.136 14.4589 101.791 14.5404C101.429 14.6218 101.052 14.704 100.691 14.7855C100.362 14.8509 100.034 14.9324 99.7043 14.9978L99.2119 15.096C99.1791 15.096 99.1464 15.1288 99.1464 15.1448C99.1624 15.1775 99.1791 15.2262 99.2119 15.2429C99.3758 15.3738 99.5564 15.5048 99.7211 15.6357C100.034 15.88 100.378 15.8968 100.739 15.864C101.232 15.8146 101.611 15.5695 101.906 15.1775C102.053 14.9811 102.053 14.9811 102.268 15.1288L103.499 15.9128C104.041 16.256 104.6 16.6153 105.142 16.9586C105.322 17.0728 105.322 17.0728 105.175 17.2364C104.813 17.6117 104.485 18.0037 104.107 18.3637C103.893 18.576 103.664 18.7557 103.401 18.9026C103.093 19.0845 102.768 19.2377 102.431 19.36C101.907 19.5394 101.359 19.6385 100.805 19.6538C100.707 19.7033 100.591 19.6866 100.493 19.6866V19.6873ZM100.591 12.1382C100.411 12.1717 100.214 12.1717 100.034 12.2371C99.6595 12.349 99.3349 12.5851 99.1136 12.9062C98.9985 13.0538 98.9162 13.2335 98.8339 13.3971C98.8178 13.4291 98.8339 13.4786 98.8339 13.5113C98.8339 13.5273 98.8834 13.5273 98.8994 13.5273C99.2775 13.4458 99.6388 13.3644 100.017 13.2822L101.101 13.0371C101.331 12.9884 101.544 12.9397 101.774 12.8742C101.873 12.8415 101.889 12.8088 101.824 12.7433C101.479 12.384 101.085 12.1549 100.591 12.1389V12.1382ZM6.02032 12.6953C6.02032 10.5222 6.0043 8.36512 6.02032 6.19275C6.02032 5.55566 6.3328 5.04875 6.85798 4.68948C7.25277 4.41166 7.69563 4.31348 8.17273 4.31348H13.6758C13.9875 4.29748 13.9547 4.33021 13.9547 4.60803V7.6793C13.9547 7.85894 13.9387 7.89166 13.7413 7.89166H11.047C10.8663 7.89166 10.6857 7.90766 10.5378 7.97312C10.2101 8.08803 10.0942 8.38184 10.0782 8.69239C10.0615 9.18257 10.0615 9.67275 10.0615 10.1469V10.424C10.0615 10.5222 10.111 10.5549 10.1926 10.5549H11.9669C12.1971 10.5549 12.1971 10.5549 12.1971 10.7833V13.9033C12.1971 14.0997 12.1804 14.1164 11.9837 14.1164H10.1926C10.0615 14.1164 10.0447 14.1324 10.0447 14.2633V19.3935C10.0447 19.4917 10.0119 19.5244 9.91359 19.5244H6.1019C6.00357 19.5244 5.98682 19.4749 5.98682 19.3935C6.01959 17.1549 6.01959 14.9331 6.01959 12.6953H6.02032ZM38.8418 15.1942V12.6124C38.8418 12.4655 38.809 12.4328 38.6612 12.4328H37.3471C37.216 12.4328 37.1993 12.4168 37.1993 12.2858V9.00221C37.1993 8.8873 37.232 8.8553 37.3471 8.8553H38.6451C38.809 8.8553 38.8258 8.82257 38.8258 8.67494V5.40803C38.8258 5.26039 38.8418 5.24439 38.9897 5.24439H42.6367C42.8006 5.24439 42.8174 5.26039 42.8174 5.42403C42.8174 6.02839 42.8341 6.64948 42.8341 7.25385C42.8341 7.72803 42.8341 8.18475 42.8502 8.65894C42.8502 8.83857 42.8829 8.8553 43.0636 8.8553H44.2305C44.3616 8.8553 44.3944 8.8873 44.3944 9.01821V12.2691C44.3944 12.4 44.3616 12.4328 44.2305 12.4328H43.0476C42.8829 12.4328 42.8669 12.4655 42.8669 12.6124V14.9651C42.8669 15.1615 42.8669 15.3738 42.982 15.5695C43.0964 15.7818 43.261 15.9128 43.5072 15.9455C43.6062 15.9622 43.7206 15.9622 43.8197 15.9622H44.9363C45.1169 15.9622 45.1337 15.9782 45.1337 16.1586V19.3273C45.1337 19.4742 45.1169 19.5069 44.9691 19.5069H40.8951C40.3861 19.5146 39.891 19.3408 39.4988 19.0168C39.2846 18.8476 39.1124 18.6314 38.9956 18.3849C38.8789 18.1384 38.8208 17.8683 38.8258 17.5957C38.8418 16.8117 38.8418 16.0102 38.8418 15.1942ZM78.9567 19.6873C78.4148 19.7193 77.8889 19.6218 77.3797 19.4909C76.8669 19.3419 76.3796 19.1161 75.9346 18.8211C75.2584 18.3745 74.6685 17.8098 74.193 17.1542C73.8827 16.7299 73.6492 16.2546 73.5032 15.7498C73.273 15.0146 73.2075 14.2626 73.273 13.5113C73.3386 12.7433 73.5527 12.008 73.9628 11.3382C74.3979 10.6021 74.9795 9.96272 75.6716 9.45966C76.0805 9.15579 76.5351 8.91866 77.0184 8.75712C77.9068 8.46151 78.8533 8.38295 79.7783 8.52803C80.1236 8.57748 80.4681 8.65894 80.7966 8.75712C81.273 8.90403 81.7006 9.13239 82.1106 9.41021C82.6928 9.83373 83.1985 10.3532 83.606 10.9462C83.6548 11.0117 83.6548 11.0604 83.5733 11.1098C82.85 11.5673 82.1106 12.0248 81.3881 12.4822C81.0763 12.6786 80.7638 12.8902 80.4353 13.0858C80.2715 13.1848 80.2714 13.1848 80.1396 13.0378C80.0096 12.8942 79.8668 12.7627 79.7128 12.6451C79.4826 12.4655 79.1869 12.4328 78.9079 12.4488C78.6449 12.4655 78.3988 12.4655 78.1518 12.5637C77.7905 12.6946 77.5276 12.9229 77.3797 13.2822C77.1991 13.7237 77.1991 14.1811 77.3142 14.6386C77.4125 15.0633 77.6755 15.3731 78.103 15.5208C78.5626 15.6844 79.0062 15.7171 79.4826 15.5862C79.7616 15.5048 79.9757 15.3244 80.1564 15.096C80.1724 15.0633 80.2052 15.0473 80.2219 15.0146C80.2547 14.9651 80.3042 14.9651 80.353 14.9978C81.1907 15.5368 82.0451 16.0764 82.8827 16.6153L83.5733 17.0568C83.6548 17.1055 83.6548 17.1542 83.606 17.2197C83.0969 17.9389 82.5054 18.5433 81.7494 19.0008C81.1907 19.328 80.5832 19.5564 79.9429 19.6378C79.6305 19.6866 79.302 19.7033 78.9895 19.736C78.9567 19.7193 78.9567 19.7033 78.9567 19.6866V19.6873ZM52.6573 11.1098V4.47712C52.6573 4.29675 52.674 4.28075 52.8539 4.28075H56.4682C56.6328 4.28075 56.6489 4.31348 56.6489 4.47712V14.9004C56.6489 15.0473 56.6656 15.1942 56.6817 15.3411C56.7312 15.6517 56.9941 15.9128 57.3059 15.9622C57.437 15.9782 57.5688 15.9782 57.7167 15.9782H60.3943C60.5254 15.9782 60.5421 16.0109 60.5421 16.1578V19.3768C60.5421 19.4749 60.5094 19.5237 60.3943 19.5237H54.4644C54.0864 19.5237 53.7083 19.4422 53.3798 19.2458C53.1037 19.0838 52.8942 18.8292 52.7884 18.5273C52.6573 18.184 52.6245 17.8408 52.6245 17.4815C52.6573 15.3578 52.6573 13.2342 52.6573 11.1098ZM107.293 14.8509V10.6837C107.293 10.4226 107.31 10.1455 107.36 9.88366C107.491 9.2953 107.819 8.8873 108.411 8.70694C108.707 8.60948 109.002 8.59275 109.298 8.59275H114.111C114.275 8.59275 114.308 8.62548 114.308 8.78912V11.9586C114.308 12.1382 114.292 12.1549 114.111 12.1549C113.503 12.1549 112.912 12.1382 112.304 12.1549C112.107 12.1549 111.91 12.1869 111.729 12.2524C111.45 12.3506 111.351 12.5957 111.319 12.8735C111.302 12.9709 111.319 13.0698 111.319 13.1673V19.3753C111.319 19.4735 111.286 19.5062 111.187 19.5062H107.475C107.343 19.5062 107.31 19.4735 107.31 19.3593C107.28 17.8565 107.275 16.3532 107.293 14.8502V14.8509Z" fill="white"/>
</g>
<defs>
<clipPath id="clip0_3628_19604">
<rect width="118" height="24" fill="white" transform="translate(0.599609)"/>
</clipPath>
</defs>
</svg>

<svg xmlns="http://www.w3.org/2000/svg" width="119" height="24" fill="none">
  <g clip-path="url(#a)">
    <path fill="#000" d="M118.579 0H.599v24h117.98V0Z"/>
    <path fill="#fff" d="M84.575 11.91V4.46c0-.163.033-.196.197-.196h3.68c.148 0 .18.033.18.18v7.106a.228.228 0 0 1 .033.099l.099-.049c.099-.115.18-.23.28-.36.509-.62 1.001-1.241 1.51-1.862.067-.098.148-.13.28-.13h4.041a.09.09 0 0 1 .082.048c.016.017-.016.065-.033.081-.246.311-.51.606-.755.915-.756.915-1.512 1.847-2.267 2.762-.18.228-.362.44-.559.669-.065.082-.065.13 0 .213.542.637 1.084 1.29 1.627 1.927.673.801 1.33 1.586 1.987 2.386.312.376.64.752.953 1.127.016.034.033.066.033.098a.228.228 0 0 1-.1.033h-4.401a.234.234 0 0 1-.197-.098c-.674-.8-1.331-1.617-2.005-2.418-.148-.18-.295-.343-.427-.523-.032-.032-.082-.05-.115-.081-.016.049-.032.081-.032.13v2.843c0 .13-.017.147-.181.147h-3.68c-.213 0-.213 0-.213-.213-.017-2.45-.017-4.917-.017-7.384Zm-17.987 7.793a4.83 4.83 0 0 1-1.511-.212 5.3 5.3 0 0 1-1.414-.654 6.72 6.72 0 0 1-1.396-1.241 5.503 5.503 0 0 1-.805-1.291c-.377-.899-.492-1.846-.41-2.794.039-.48.144-.953.312-1.405a5.636 5.636 0 0 1 1.298-2.026 5.962 5.962 0 0 1 1.626-1.143c.295-.131.624-.23.952-.31.641-.148 1.282-.197 1.923-.148.412.035.819.112 1.215.229a4.8 4.8 0 0 1 1.15.507c.51.293.936.685 1.33 1.11.362.393.657.817.888 1.275.18.375.328.767.41 1.193.164.734.164 1.486.066 2.238-.071.474-.21.936-.41 1.372-.51 1.095-1.33 1.895-2.317 2.548a5.114 5.114 0 0 1-1.445.605c-.493.082-.953.147-1.462.147Zm.164-7.287c-.328 0-.641.066-.92.23-.427.244-.673.636-.772 1.11-.066.344-.033.703.082 1.046.148.425.444.686.87.784.379.098.773.098 1.167.016.51-.097.854-.392.986-.882.148-.506.148-1.03-.066-1.52a1.045 1.045 0 0 0-.69-.62c-.214-.082-.444-.114-.657-.163v-.001ZM24.419 14.23c.017.36-.066.882-.213 1.389a5.453 5.453 0 0 1-.937 1.813c-.388.5-.847.94-1.363 1.307a6.373 6.373 0 0 1-1.134.621 5.616 5.616 0 0 1-2.48.343 5.345 5.345 0 0 1-1.43-.327c-1.1-.425-1.938-1.143-2.661-2.042a4.524 4.524 0 0 1-.69-1.225 5.185 5.185 0 0 1-.312-1.225c-.05-.41-.082-.834-.05-1.242.05-.572.166-1.127.395-1.667.361-.898.969-1.633 1.692-2.254a5.15 5.15 0 0 1 1.314-.8c.903-.393 1.857-.491 2.826-.409.443.036.879.13 1.297.278.667.239 1.28.605 1.807 1.078.509.44.937.965 1.265 1.552.165.31.296.62.411.947.197.507.263 1.095.263 1.863Zm-7.294-.147c0 .065.017.196.033.327.083.588.394.996.969 1.143.51.131 1.02.147 1.511-.048a1.17 1.17 0 0 0 .724-.818c.114-.392.114-.784.033-1.192-.148-.604-.56-.931-1.101-1.013-.428-.065-.855-.065-1.282.082a1.28 1.28 0 0 0-.673.538c-.18.278-.213.589-.213.98Zm13.75 5.62a4.915 4.915 0 0 1-1.512-.212 5.31 5.31 0 0 1-1.445-.67 6.353 6.353 0 0 1-1.825-1.797 5.23 5.23 0 0 1-.607-1.258 5.836 5.836 0 0 1-.246-2.19c.033-.506.148-.98.312-1.454.295-.784.756-1.454 1.347-2.058.476-.474 1.002-.865 1.626-1.127.458-.193.938-.33 1.429-.409a5.299 5.299 0 0 1 1.348-.049c.295.016.59.082.886.147.23.049.46.114.69.197.28.114.575.244.838.408.608.343 1.1.816 1.544 1.356.362.44.657.915.854 1.438.324.82.448 1.704.362 2.58-.066.605-.197 1.194-.46 1.75a5.951 5.951 0 0 1-1.512 1.976 5.612 5.612 0 0 1-1.593 1.013 5.328 5.328 0 0 1-2.037.36Zm.13-4.051c.066 0 .133-.017.215-.017.296-.033.575-.098.805-.278.279-.212.427-.506.492-.85.066-.424.066-.833-.081-1.24-.165-.459-.51-.703-.97-.785-.444-.082-.887-.082-1.33.066-.444.146-.723.456-.838.914a2.25 2.25 0 0 0 0 1.144c.065.278.196.506.427.686.378.31.821.343 1.281.36Z"/>
    <path fill="#fff" d="M100.493 19.687a5.269 5.269 0 0 1-1.511-.196 5.055 5.055 0 0 1-1.445-.67 6.68 6.68 0 0 1-1.84-1.814 4.314 4.314 0 0 1-.592-1.241c-.312-.964-.345-1.927-.148-2.909a5.537 5.537 0 0 1 .69-1.715 6.043 6.043 0 0 1 1.33-1.552 4.98 4.98 0 0 1 1.364-.8c.838-.327 1.709-.409 2.596-.376.466.02.929.091 1.379.212a5.14 5.14 0 0 1 1.775.931 5.585 5.585 0 0 1 1.346 1.634c.181.344.362.703.51 1.062.148.376.23.784.23 1.193 0 .13-.033.164-.164.18-.378.08-.772.163-1.15.245-.345.065-.674.146-1.019.212-.345.081-.69.147-1.035.228-.345.082-.673.148-1.018.23-.362.08-.739.163-1.1.245-.329.065-.657.146-.987.212l-.492.098c-.033 0-.066.033-.066.049.016.033.033.081.066.098.164.13.344.262.51.393.312.244.656.26 1.017.228.493-.05.872-.295 1.167-.687.147-.196.147-.196.362-.048l1.231.784c.542.343 1.101.702 1.643 1.046.18.114.18.114.033.277-.362.376-.69.768-1.068 1.128a3.233 3.233 0 0 1-.706.539 5.797 5.797 0 0 1-.97.457 5.487 5.487 0 0 1-1.626.294c-.098.05-.214.033-.312.033Zm.098-7.549c-.18.034-.377.034-.557.1a1.7 1.7 0 0 0-.92.668c-.115.148-.198.327-.28.491-.016.032 0 .082 0 .114 0 .016.05.016.065.016.379-.081.74-.163 1.118-.245l1.084-.245a9.79 9.79 0 0 0 .673-.163c.099-.033.115-.065.05-.13-.345-.36-.739-.59-1.233-.605Zm-94.57.557c0-2.173-.017-4.33 0-6.502 0-.637.312-1.144.837-1.504.395-.277.838-.376 1.315-.376h5.503c.312-.016.279.017.279.295v3.071c0 .18-.016.213-.214.213h-2.694c-.18 0-.361.016-.51.081-.327.115-.443.409-.459.72-.016.49-.016.98-.016 1.454v.277c0 .098.049.13.13.13h1.775c.23 0 .23 0 .23.23v3.12c0 .196-.017.212-.213.212h-1.791c-.131 0-.148.016-.148.147v5.13c0 .099-.033.131-.131.131H6.102c-.098 0-.115-.05-.115-.13.033-2.24.033-4.46.033-6.699Zm32.82 2.5v-2.583c0-.146-.032-.18-.18-.18h-1.314c-.131 0-.148-.015-.148-.146V9.002c0-.115.033-.147.148-.147h1.298c.164 0 .18-.032.18-.18V5.408c0-.148.017-.164.165-.164h3.647c.164 0 .18.016.18.18 0 .604.017 1.225.017 1.83 0 .474 0 .93.016 1.405 0 .18.033.196.214.196h1.166c.132 0 .164.032.164.163v3.251c0 .131-.032.164-.163.164h-1.183c-.165 0-.181.033-.181.18v2.352c0 .197 0 .409.115.604a.666.666 0 0 0 .525.376c.1.017.214.017.313.017h1.116c.18 0 .198.016.198.197v3.168c0 .147-.017.18-.165.18h-4.074a2.142 2.142 0 0 1-1.396-.49 1.772 1.772 0 0 1-.673-1.421c.016-.784.016-1.586.016-2.402Zm40.116 4.492c-.542.032-1.068-.065-1.577-.196a5.31 5.31 0 0 1-1.445-.67 6.74 6.74 0 0 1-1.742-1.667c-.31-.424-.544-.9-.69-1.404a5.757 5.757 0 0 1-.23-2.239c.066-.768.28-1.503.69-2.173a6.261 6.261 0 0 1 1.709-1.878 4.82 4.82 0 0 1 1.346-.703 5.864 5.864 0 0 1 2.76-.229c.346.05.69.13 1.019.23.476.146.904.374 1.314.652a6.34 6.34 0 0 1 1.495 1.536c.049.066.049.114-.033.164-.723.457-1.462.915-2.185 1.372-.312.197-.624.408-.953.604-.163.099-.164.099-.295-.048a3.175 3.175 0 0 0-.427-.393c-.23-.18-.526-.212-.805-.196-.263.017-.51.017-.756.115-.362.13-.624.359-.772.718-.18.442-.18.9-.066 1.357.099.424.362.734.789.882.46.163.903.196 1.38.065.279-.081.493-.262.673-.49.016-.033.05-.049.066-.081.033-.05.082-.05.131-.017.838.539 1.692 1.078 2.53 1.617l.69.442c.082.049.082.097.033.163-.51.719-1.1 1.323-1.857 1.78a4.772 4.772 0 0 1-1.806.638c-.313.049-.641.065-.953.098-.033-.017-.033-.033-.033-.05v.001Zm-26.3-8.577V4.477c0-.18.017-.196.197-.196h3.614c.165 0 .18.032.18.196V14.9c0 .147.018.294.034.441.05.31.312.572.624.621.131.016.263.016.41.016h2.678c.131 0 .148.033.148.18v3.219c0 .098-.033.147-.148.147h-5.93c-.378 0-.756-.082-1.084-.278a1.351 1.351 0 0 1-.592-.719c-.13-.343-.163-.686-.163-1.046.032-2.123.032-4.247.032-6.371Zm54.636 3.74v-4.166c0-.261.017-.538.067-.8.131-.589.459-.997 1.051-1.177.296-.098.591-.114.887-.114h4.813c.164 0 .197.032.197.196v3.17c0 .18-.016.196-.197.196-.608 0-1.199-.017-1.807 0a1.71 1.71 0 0 0-.575.097c-.279.099-.378.344-.41.621-.017.098 0 .197 0 .294v6.208c0 .099-.033.131-.132.131h-3.712c-.132 0-.165-.032-.165-.147a141.2 141.2 0 0 1-.017-4.509Z"/>
  </g>
  <defs>
    <clipPath id="a">
      <path fill="#fff" d="M.6 0h118v24H.6z"/>
    </clipPath>
  </defs>
</svg>
